images/logos/paypal.svg

<svg width="78" height="19" viewBox="0 0 78 19" fill="none" xmlns="http://www.w3.org/2000/svg">
<path d="M29.4008 8.1001C29.2008 9.6001 28.0008 9.6001 26.9008 9.6001H26.3008L26.8008 6.7001C26.8008 6.5001 27.0008 6.4001 27.2008 6.4001H27.5008C28.3008 6.4001 29.0008 6.4001 29.4008 6.8001C29.4008 7.2001 29.4008 7.6001 29.4008 8.1001ZM28.9008 4.1001H24.6008C24.3008 4.1001 24.1008 4.3001 24.0008 4.6001L22.3008 15.6001C22.3008 15.8001 22.4008 16.0001 22.7008 16.0001H24.7008C25.0008 16.0001 25.2008 15.8001 25.3008 15.5001L25.8008 12.5001C25.8008 12.2001 26.1008 12.0001 26.4008 12.0001H27.8008C30.6008 12.0001 32.2008 10.6001 32.7008 7.9001C32.9008 6.7001 32.7008 5.8001 32.2008 5.1001C31.4008 4.5001 30.3008 4.1001 28.9008 4.1001Z" fill="#263577"/>
<path d="M38.8003 12.0999C38.6003 13.2999 37.7003 14.0999 36.5003 14.0999C35.9003 14.0999 35.4003 13.8999 35.1003 13.4999C34.8003 13.0999 34.7003 12.5999 34.8003 12.0999C35.0003 10.8999 35.9003 10.0999 37.1003 10.0999C37.7003 10.0999 38.2003 10.2999 38.5003 10.6999C38.7003 10.9999 38.9003 11.4999 38.8003 12.0999ZM41.6003 8.0999H39.6003C39.4003 8.0999 39.3003 8.1999 39.2003 8.3999L39.1003 8.9999L39.0003 8.7999C38.6003 8.1999 37.6003 7.8999 36.6003 7.8999C34.3003 7.8999 32.4003 9.5999 32.0003 11.9999C31.8003 13.1999 32.1003 14.2999 32.8003 15.0999C33.4003 15.7999 34.3003 16.0999 35.4003 16.0999C37.2003 16.0999 38.2003 14.8999 38.2003 14.8999L38.1003 15.4999C38.1003 15.6999 38.2003 15.8999 38.5003 15.8999H40.3003C40.6003 15.8999 40.8003 15.6999 40.9003 15.3999L42.0003 8.3999C42.0003 8.2999 41.9003 8.0999 41.6003 8.0999Z" fill="#263577"/>
<path d="M52.4993 8.1001H50.3993C50.1993 8.1001 49.9992 8.2001 49.8993 8.4001L47.0993 12.6001L45.8992 8.6001C45.7992 8.3001 45.5992 8.2001 45.2992 8.2001H43.2992C43.0992 8.2001 42.8993 8.4001 42.9993 8.7001L45.2992 15.3001L43.1992 18.3001C42.9992 18.5001 43.1993 18.9001 43.4993 18.9001H45.5993C45.7993 18.9001 45.9993 18.8001 46.0993 18.6001L52.8993 8.7001C52.9993 8.4001 52.7993 8.1001 52.4993 8.1001Z" fill="#263577"/>
<path d="M59.7992 8.1001C59.5992 9.6001 58.3992 9.6001 57.2992 9.6001H56.6992L57.1992 6.7001C57.1992 6.5001 57.3992 6.4001 57.5992 6.4001H57.8992C58.6992 6.4001 59.3992 6.4001 59.7992 6.8001C59.8992 7.2001 59.8992 7.6001 59.7992 8.1001ZM59.2992 4.1001H54.9992C54.6992 4.1001 54.4992 4.3001 54.3992 4.6001L52.6992 15.6001C52.6992 15.8001 52.7992 16.0001 53.0992 16.0001H55.2992C55.4992 16.0001 55.6992 15.9001 55.6992 15.6001L56.1992 12.5001C56.1992 12.2001 56.4992 12.0001 56.7992 12.0001H58.1992C60.9992 12.0001 62.5992 10.6001 63.0992 7.9001C63.2992 6.7001 63.0992 5.8001 62.5992 5.1001C61.8992 4.5001 60.7992 4.1001 59.2992 4.1001Z" fill="#2199D6"/>
<path d="M69.3003 12.0999C69.1003 13.2999 68.2003 14.0999 67.0003 14.0999C66.4003 14.0999 65.9003 13.8999 65.6003 13.4999C65.3003 13.0999 65.2003 12.5999 65.3003 12.0999C65.5003 10.8999 66.4003 10.0999 67.6003 10.0999C68.2003 10.0999 68.7003 10.2999 69.0003 10.6999C69.2003 10.9999 69.4003 11.4999 69.3003 12.0999ZM72.1003 8.0999H70.1003C69.9003 8.0999 69.8003 8.1999 69.7003 8.3999L69.6003 8.9999L69.5003 8.7999C69.1003 8.1999 68.1003 7.8999 67.1003 7.8999C64.8003 7.8999 62.9003 9.5999 62.5003 11.9999C62.3003 13.1999 62.6003 14.2999 63.3003 15.0999C63.9003 15.7999 64.8003 16.0999 65.9003 16.0999C67.7003 16.0999 68.7003 14.8999 68.7003 14.8999L68.6003 15.4999C68.6003 15.6999 68.7003 15.8999 69.0003 15.8999H70.8003C71.1003 15.8999 71.3003 15.6999 71.4003 15.3999L72.5003 8.3999C72.5003 8.2999 72.3003 8.0999 72.1003 8.0999Z" fill="#2199D6"/>
<path d="M74.4992 4.4001L72.6992 15.6001C72.6992 15.8001 72.7992 16.0001 73.0992 16.0001H74.8992C75.1992 16.0001 75.3992 15.8001 75.4992 15.5001L77.1992 4.5001C77.1992 4.3001 77.0992 4.1001 76.7992 4.1001H74.7992C74.6992 4.1001 74.5992 4.3001 74.4992 4.4001Z" fill="#2199D6"/>
<path d="M4.49962 18.1001L4.79961 16.0001H4.09961H0.599609L2.99962 0.700096C2.99962 0.700096 2.99961 0.600098 3.09961 0.600098H3.19962H9.09961C10.9996 0.600098 12.3996 1.0001 13.0996 1.8001C13.3996 2.2001 13.5996 2.6001 13.6996 3.0001C13.7996 3.5001 13.7996 4.0001 13.6996 4.7001V5.1001L13.9996 5.3001C14.2996 5.4001 14.4996 5.6001 14.6996 5.8001C14.9996 6.1001 15.1996 6.5001 15.1996 7.0001C15.2996 7.5001 15.2996 8.1001 15.0996 8.8001C14.8996 9.6001 14.6996 10.2001 14.3996 10.8001C14.0996 11.3001 13.6996 11.7001 13.2996 12.1001C12.8996 12.4001 12.2996 12.6001 11.7996 12.8001C11.1996 12.9001 10.5996 13.0001 9.89961 13.0001H9.39961C9.09961 13.0001 8.79962 13.1001 8.49962 13.3001C8.29962 13.5001 8.09962 13.8001 7.99962 14.1001V14.3001L7.39961 18.0001V18.1001V18.2001C7.39961 18.2001 7.39961 18.2001 7.29961 18.2001H4.49962V18.1001Z" fill="#263577"/>
<path d="M14.4004 4.7002C14.4004 4.8002 14.4004 4.9002 14.3004 5.0002C13.5004 9.0002 10.9004 10.3002 7.5004 10.3002H5.80038C5.40038 10.3002 5.0004 10.6002 5.0004 11.0002L4.10039 16.6002L3.90039 18.2002C3.90039 18.5002 4.10038 18.7002 4.30038 18.7002H7.40039C7.80039 18.7002 8.10039 18.4002 8.10039 18.1002V17.9002L8.70039 14.3002V14.1002C8.80039 13.7002 9.10039 13.5002 9.40039 13.5002H9.90039C12.9004 13.5002 15.2004 12.3002 15.8004 8.8002C16.1004 7.3002 15.9004 6.1002 15.2004 5.3002C15.0004 5.1002 14.7004 4.9002 14.4004 4.7002Z" fill="#2199D6"/>
<path d="M13.6 4.4001C13.5 4.4001 13.4 4.3001 13.2 4.3001C13.1 4.3001 12.9 4.2001 12.8 4.2001C12.3 4.1001 11.8 4.1001 11.3 4.1001H6.7C6.6 4.1001 6.49999 4.1001 6.39999 4.2001C6.19999 4.3001 6 4.5001 6 4.7001L5 10.9001V11.1001C5.1 10.7001 5.39999 10.4001 5.79999 10.4001H7.5C10.9 10.4001 13.5 9.0001 14.3 5.1001C14.3 5.0001 14.3 4.9001 14.4 4.8001C14.2 4.7001 14 4.6001 13.8 4.5001C13.7 4.4001 13.6 4.4001 13.6 4.4001Z" fill="#252C5E"/>
<path d="M6 4.7C6 4.5 6.19999 4.3 6.39999 4.2C6.49999 4.2 6.6 4.1 6.7 4.1H11.3C11.8 4.1 12.4 4.1 12.8 4.2C12.9 4.2 13.1 4.2 13.2 4.3C13.3 4.3 13.4 4.4 13.6 4.4C13.7 4.4 13.7 4.4 13.8 4.5C14 4.6 14.2 4.7 14.4 4.8C14.6 3.3 14.4 2.3 13.6 1.4C12.7 0.399998 11.1 0 9.09999 0H3.2C2.8 0 2.39999 0.299997 2.39999 0.699997L0 16.1C0 16.4 0.2 16.7 0.5 16.7H4.09999L5 10.9L6 4.7Z" fill="#263577"/>
</svg>

<svg width="78" height="19" fill="none" xmlns="http://www.w3.org/2000/svg"><path d="M29.4 8.1c-.2 1.5-1.4 1.5-2.5 1.5h-.6l.5-2.9c0-.2.2-.3.4-.3h.3c.8 0 1.5 0 1.9.4v1.3zm-.5-4h-4.3c-.3 0-.5.2-.6.5l-1.7 11c0 .2.1.4.4.4h2c.3 0 .5-.2.6-.5l.5-3c0-.3.3-.5.6-.5h1.4c2.8 0 4.4-1.4 4.9-4.1.2-1.2 0-2.1-.5-2.8-.8-.6-1.9-1-3.3-1zm9.9 8c-.2 1.2-1.1 2-2.3 2-.6 0-1.1-.2-1.4-.6-.3-.4-.4-.9-.3-1.4.2-1.2 1.1-2 2.3-2 .6 0 1.1.2 1.4.6.2.3.4.8.3 1.4zm2.8-4h-2c-.2 0-.3.1-.4.3l-.1.6-.1-.2c-.4-.6-1.4-.9-2.4-.9-2.3 0-4.2 1.7-4.6 4.1-.2 1.2.1 2.3.8 3.1.6.7 1.5 1 2.6 1 1.8 0 2.8-1.2 2.8-1.2l-.1.6c0 .2.1.4.4.4h1.8c.3 0 .5-.2.6-.5l1.1-7c0-.1-.1-.3-.4-.3zm10.9 0h-2.1c-.2 0-.4.1-.5.3l-2.8 4.2-1.2-4c-.1-.3-.3-.4-.6-.4h-2c-.2 0-.4.2-.3.5l2.3 6.6-2.1 3c-.2.2 0 .6.3.6h2.1c.2 0 .4-.1.5-.3l6.8-9.9c.1-.3-.1-.6-.4-.6z" fill="#263577"/><path d="M59.8 8.1c-.2 1.5-1.4 1.5-2.5 1.5h-.6l.5-2.9c0-.2.2-.3.4-.3h.3c.8 0 1.5 0 1.9.4.1.4.1.8 0 1.3zm-.5-4H55c-.3 0-.5.2-.6.5l-1.7 11c0 .2.1.4.4.4h2.2c.2 0 .4-.1.4-.4l.5-3.1c0-.3.3-.5.6-.5h1.4c2.8 0 4.4-1.4 4.9-4.1.2-1.2 0-2.1-.5-2.8-.7-.6-1.8-1-3.3-1zm10 8c-.2 1.2-1.1 2-2.3 2-.6 0-1.1-.2-1.4-.6-.3-.4-.4-.9-.3-1.4.2-1.2 1.1-2 2.3-2 .6 0 1.1.2 1.4.6.2.3.4.8.3 1.4zm2.8-4h-2c-.2 0-.3.1-.4.3l-.1.6-.1-.2c-.4-.6-1.4-.9-2.4-.9-2.3 0-4.2 1.7-4.6 4.1-.2 1.2.1 2.3.8 3.1.6.7 1.5 1 2.6 1 1.8 0 2.8-1.2 2.8-1.2l-.1.6c0 .2.1.4.4.4h1.8c.3 0 .5-.2.6-.5l1.1-7c0-.1-.2-.3-.4-.3zm2.4-3.7l-1.8 11.2c0 .2.1.4.4.4h1.8c.3 0 .5-.2.6-.5l1.7-11c0-.2-.1-.4-.4-.4h-2c-.1 0-.2.2-.3.3z" fill="#2199D6"/><path d="M4.5 18.1l.3-2.1H.6L3 .7s0-.1.1-.1h6c1.9 0 3.3.4 4 1.2.3.4.5.8.6 1.2.1.5.1 1 0 1.7v.4l.3.2c.3.1.5.3.7.5.3.3.5.7.5 1.2.1.5.1 1.1-.1 1.8-.2.8-.4 1.4-.7 2-.3.5-.7.9-1.1 1.3-.4.3-1 .5-1.5.7-.6.1-1.2.2-1.9.2h-.5c-.3 0-.6.1-.9.3-.2.2-.4.5-.5.8v.2L7.4 18v.2H4.5v-.1z" fill="#263577"/><path d="M14.4 4.7c0 .1 0 .2-.1.3-.8 4-3.4 5.3-6.8 5.3H5.8c-.4 0-.8.3-.8.7l-.9 5.6-.2 1.6c0 .3.2.5.4.5h3.1c.4 0 .7-.3.7-.6v-.2l.6-3.6v-.2c.1-.4.4-.6.7-.6h.5c3 0 5.3-1.2 5.9-4.7.3-1.5.1-2.7-.6-3.5-.2-.2-.5-.4-.8-.6z" fill="#2199D6"/><path d="M13.6 4.4c-.1 0-.2-.1-.4-.1-.1 0-.3-.1-.4-.1-.5-.1-1-.1-1.5-.1H6.7c-.1 0-.2 0-.3.1-.2.1-.4.3-.4.5l-1 6.2v.2c.1-.4.4-.7.8-.7h1.7c3.4 0 6-1.4 6.8-5.3 0-.1 0-.2.1-.3l-.6-.3c-.1-.1-.2-.1-.2-.1z" fill="#252C5E"/><path d="M6 4.7c0-.2.2-.4.4-.5.1 0 .2-.1.3-.1h4.6c.5 0 1.1 0 1.5.1.1 0 .3 0 .4.1.1 0 .2.1.4.1.1 0 .1 0 .2.1l.6.3c.2-1.5 0-2.5-.8-3.4C12.7.4 11.1 0 9.1 0H3.2c-.4 0-.8.3-.8.7L0 16.1c0 .3.2.6.5.6h3.6l.9-5.8 1-6.2z" fill="#263577"/></svg>
